X:22
T:Lord Cathcart Dance.2voices. AJH.022
M:2/4
L:1/8
Q:1/4=100
S:A.J.Hughes MS
O:England
A:North Shropshire
Z:Neil Brookes 2006
K:G
[V:1] |: d/e/d/c/ | BBBB | (dB)BB | cAAA |
[V:2] |: B3/A/ | GGGG | BGGG | AFFF |
%
[V:1] (Bd) d/e/d/c/ | BBBB | (dB)BB | cAAF | G2 😐
[V:2] GF B>A | GGGG | BGGG | AFFD | [B2G2D2] 😐
%
[V:1] d | g>ggg | fafd | g>ggg | fafd |
[V:2] A | B>BBB | dAAA | B>BBB | dAAA |
%
[V:1] ged^c | Hd2 d/c/ | B2b>g | g/f/e/d/ c/B/A/G/ |
[V:2] dBA^G | HA2 B/A/ | GGGG | z4 |
%
[V:1] A2A>a | a/g/f/e/ d/c/B/A/ | B2B>g | g/f/e/d/ c/B/A/G/ | A2d>c | “^Da Capo”B2|]
[V:2] FFFF | z4 | GGGG | z4 | F2 D2 |”^Da Capo”G2|]

